X: 23617
T: Lilting Fisherman, The
R: reel
M: 4/4
K: Cmajor
G3 E GAcd|edcB cA A2|GE ~E2 GAcd|1 . edcB c3 A:|2 . edcB c3 d||
eg ~g2 ea ~a2|gede cA A2|eg ~g2 ea ~a2|gabg a3 g|
eg ~g2 agea|gede cA A2|GE ~E2 GAcd|1 . edcB c3 d:|2 . edcB c3 A||

